Papirus/16x16/actions/format-text-direction-horizontal.svg

<?xml version="1.0" encoding="UTF-8" standalone="no"?>
<svg xmlns="http://www.w3.org/2000/svg" viewBox="0 0 16 16">
  <defs>
    <style type="text/css" id="current-color-scheme">
      .ColorScheme-Text {
        color:#5c616c;
      }
      </style>
  </defs>
  <path style="fill:currentColor;opacity:1" class="ColorScheme-Text" d="M 3.6875 3 L 1 10 L 1.84375 10 L 2.6875 7.78125 L 5.46875 7.78125 L 6.28125 10 L 7.125 10 L 4.53125 3 L 3.6875 3 z M 7 3 L 7 4 L 11 4 L 11 3 L 7 3 z M 13 3 L 13 7 L 15 5 L 13 3 z M 4.09375 3.84375 C 4.16295 4.08305 4.5231 5.16345 5.1875 7.09375 L 2.9375 7.09375 L 4.09375 3.84375 z M 8 6 L 8 7 L 11 7 L 11 6 L 8 6 z M 9 9 L 9 10 L 11 10 L 11 9 L 9 9 z M 13 9 L 13 13 L 15 11 L 13 9 z M 1 12 L 1 13 L 11 13 L 11 12 L 1 12 z "/>
</svg>

<?xml version="1.0" encoding="UTF-8" standalone="no"?>
<!--Created with Inkscape (http://www.inkscape.org/)-->
<svg id="svg3049" xmlns:rdf="http://www.w3.org/1999/02/22-rdf-syntax-ns#" xmlns="http://www.w3.org/2000/svg" height="16" width="16" version="1.1" xmlns:cc="http://creativecommons.org/ns#" xmlns:dc="http://purl.org/dc/elements/1.1/">
 <defs id="defs3051">
 </defs>
 <metadata id="metadata3054">
  <rdf:RDF>
   <cc:Work rdf:about="">
    <dc:format>image/svg+xml</dc:format>
    <dc:type rdf:resource="http://purl.org/dc/dcmitype/StillImage"/>
    <dc:title/>
   </cc:Work>
  </rdf:RDF>
 </metadata>
 <g id="layer1" transform="translate(-421.71 -531.79)">
  <path id="path4184" opacity="1" fill="#5c616c" d="m3.6875 3l-2.6875 7h0.8438l0.8437-2.2188h2.7813l0.8124 2.2188h0.8438l-2.5938-7h-0.8437zm3.3125 0v1h4v-1h-4zm6 0v4l2-2-2-2zm-8.9062 0.8438c0.0692 0.2393 0.4293 1.3197 1.0937 3.25h-2.25l1.1563-3.25zm3.9062 2.1562v1h3v-1h-3zm1 3v1h2v-1h-2zm4 0v4l2-2-2-2zm-12 3v1h10v-1h-10z" transform="translate(421.71 531.79)"/>
 </g>
</svg>
